!!!!SEGMENT: pl-wtm--r-996-1--001-006_krogulski-jozef-wladyslaw--nieszpory-magnificat.krn
!!!cenid: 18xx:2097
!!!COM: Krogulski, Józef Władysław
!!!COM-rismid: pe30001797
!!!CDT: 1815/10/04-1842/01/09
!!!CNT: Polish
!!!OPR: Nieszpory
!!!OTL: Magnificat
!!!OMV: 006
!!!PDT: 1836
!!!AGN: Sacred; Vespers
!!!SMS-siglum: PL-Wtm
!!!SMS-shelfmark: R 996/1
!!!SMS-shelfwork: 001-006 M
!!!SMS-variant:
!!!SMS-altvar:
!!!NIFC-rismid: 1001086252
!!!URL-scan: http://repozytorium.nifc.pl/skany/pl-wtm-nut--r996
!!!ONB-nifc: UWAGA: części Nieszporów: 1. Dixit Dominus, 2. Confitebor tibi, 3. Beatus vir, 4. Laudate pueri, 5. Laudate Dominum, 6. Magnificat, 7. Salve Regina. Folder pl-wtm-r996-1
**kern	**kern	**dynam	**kern	**text	**dynam	**kern	**text	**dynam	**kern	**text	**dynam	**kern	**text	**dynam
*part5	*part5	*part5	*part4	*part4	*part4	*part3	*part3	*part3	*part2	*part2	*part2	*part1	*part1	*part1
*staff6	*staff5	*staff5	*staff4	*staff4	*staff4	*staff3	*staff3	*staff3	*staff2	*staff2	*staff2	*staff1	*staff1	*staff1
*group	*group	*group	*group1	*group1	*group1	*group1	*group1	*group1	*group1	*group1	*group1	*group1	*group1	*group1
*I"Organo.	*I"Organo.	*	*I"Basſo.	*	*	*I"Tenori	*	*	*I"Soprano 2. vel Alto.	*	*	*I"Soprano 1.	*	*
*clefF4	*clefG2	*	*clefF4	*	*	*clefGv2	*	*	*clefG2	*	*	*clefG2	*	*
*k[f#c#g#d#]	*k[f#c#g#d#]	*	*k[f#c#g#d#]	*	*	*k[f#c#g#d#]	*	*	*k[f#c#g#d#]	*	*	*k[f#c#g#d#]	*	*
*E:	*E:	*	*E:	*	*	*E:	*	*	*E:	*	*	*E:	*	*
*M4/4	*M4/4	*	*M4/4	*	*	*M4/4	*	*	*M4/4	*	*	*M4/4	*	*
*met(c)	*met(c)	*	*met(c)	*	*	*met(c)	*	*	*met(c)	*	*	*met(c)	*	*
=1	=1	=1	=1	=1	=1	=1	=1	=1	=1	=1	=1	=1	=1	=1
*	*	*	*	*	*	*^	*	*	*	*	*	*	*	*
*	*	*	*	*ij	*	*	*	*	*	*	*ij	*	*	*	*
!	!	!	!	!	!	!LO:TX:t=P:problem:w źródle brak przenośnika oktawowego	!	!	!	!	!	!	!LO:TX:a:t=Andante maestoso.	!	!
!	!	!LO:DY:rj	!	!	!LO:DY:b:rj	!	!	!	!LO:DY:b:rj	!	!	!LO:DY:b:rj	!	!	!LO:DY:b:rj
2E\	2e/	f	(>2E\	Ma-	f	(>2E/	(<2E\	Ma-	f	(<2e/	Ma-	f	(<2e/	Ma-	f
4G#\	4g#/	.	4G#\)	.	.	4G#/)	4G#\)	.	.	4g#/)	.	.	4g#/)	.	.
4E\	4e/	.	4E\	-gni-	.	4E/	4E\	-gni-	.	4e/	-gni-	.	4e/	-gni-	.
=2	=2	=2	=2	=2	=2	=2	=2	=2	=2	=2	=2	=2	=2	=2	=2
4.B\	4.b\	.	(>4.B\	-fi-	.	4.B/	4.B\	-fi-	.	(<4.b/	-fi-	.	(<4.b/	-fi-	.
8G#\	8g#\	.	8G#\)	.	.	8G#/	8G#\	.	.	8g#/)	.	.	8g#/)	.	.
4E\	4e/	.	4E\	-cat	.	4E/	4E\	-cat	.	4e/	-cat	.	4e/	-cat	.
4r	4r	.	4r	.	.	4r	4ryy	.	.	4r	.	.	4r	.	.
=3	=3	=3	=3	=3	=3	=3	=3	=3	=3	=3	=3	=3	=3	=3	=3
2E\	2e/	.	(>2E\	Ma-	.	(>2E/	(<2E\	Ma-	.	(<2e/	Ma-	.	(<2e/	Ma-	.
4G#\	4g#/	.	4G#\)	.	.	4G#/)	4G#\)	.	.	4g#/)	.	.	4g#/)	.	.
4B\	4b/	.	4B\	-gni-	.	4B/	4B\	-gni-	.	4b\	-gni-	.	4b\	-gni-	.
=4	=4	=4	=4	=4	=4	=4	=4	=4	=4	=4	=4	=4	=4	=4	=4
[>2e\	[>2ee\	.	[>2e\	-fi-	.	[>2e/	[<2e\	-fi-	.	[>2ee\	-fi-	.	[>2ee\	-fi-	.
8e\L]	8ee\L]	.	8e\L]	.	.	8e/L]	8e\L]	.	.	8ee\L]	.	.	8ee\L]	.	.
8B\J	8b\J	.	8B\J	.	.	8B/J	8B\J	.	.	8b\J	.	.	8b\J	.	.
8G#\L	8g#\L	.	8G#\L	-cat	.	8G#/L	8G#\L	-cat	.	8g#\L	-cat	.	8g#/L	-cat	.
8E\J	8e\J	.	8E\J	.	.	8E/J	8E\J	.	.	8e\J	.	.	8e/J	.	.
*	*	*	*	*	*	*v	*v	*	*	*	*	*	*	*	*
=5	=5	=5	=5	=5	=5	=5	=5	=5	=5	=5	=5	=5	=5	=5
1D#	1a 1f#	.	2D#\	a-	.	2B 2F#/	a-	.	2f#/	a-	.	2a/	a-	.
.	.	.	4D#\	-ni-	.	4B 4F#/	-ni-	.	4f#/	-ni-	.	4a/	-ni-	.
.	.	.	4D#\	-ma	.	4B 4F#/	-ma	.	4f#/	-ma	.	4a/	-ma	.
=6	=6	=6	=6	=6	=6	=6	=6	=6	=6	=6	=6	=6	=6	=6
1E	1g# 1e	.	2E\	me-	.	2B 2G#/	me-	.	2e/	me-	.	2g#/	me-	.
.	.	.	2E\	-a	.	2B 2G#/	-a	.	2e/	-a	.	2g#/	-a	.
=7	=7	=7	=7	=7	=7	=7	=7	=7	=7	=7	=7	=7	=7	=7
1AA#X	1f# 1e 1c#	.	2.AA#X/	Do-	.	2.c# 2.F#/	Do-	.	2.e/	Do-	.	2.f#/	Do-	.
.	.	.	4AA#/	-mi-	.	4c# 4F#/	-mi-	.	4e/	-mi-	.	8g#/L	-mi-	.
.	.	.	.	.	.	.	.	.	.	.	.	8f#/J	.	.
=8	=8	=8	=8	=8	=8	=8	=8	=8	=8	=8	=8	=8	=8	=8
2BB/	2f# 2d#/	.	2BB/	-num	.	2B 2F#/	-num	.	2d#/	-num	.	2f#/	-num	.
2r	2r	.	2r	.	.	2r	.	.	2r	.	.	2r	.	.
=9	=9	=9	=9	=9	=9	=9	=9	=9	=9	=9	=9	=9	=9	=9
*	*	*	*	*	*	*^	*	*	*	*	*	*	*	*
!	!	!	!	!	!LO:DY:b:rj	!	!	!	!LO:DY:b:rj	!	!	!LO:DY:b:rj	!	!	!LO:DY:b:rj
1A [<1BB	1f# 1d# 1B	.	2.BB/	Ma-	p	2.B/	2.A\	Ma-	p	2.d#/	Ma-	p	[<2f#/	Ma-	p
.	.	.	.	.	.	.	.	.	.	.	.	.	8f#/L]	.	.
.	.	.	.	.	.	.	.	.	.	.	.	.	8g#/J	.	.
.	.	.	4BB/	-gni-	.	4B/	4A\	-gni-	.	4f#/	-gni-	.	8a/L	-gni-	.
.	.	.	.	.	.	.	.	.	.	.	.	.	8a#X/J	.	.
*	*	*	*	*	*	*v	*v	*	*	*	*	*	*	*	*
=10	=10	=10	=10	=10	=10	=10	=10	=10	=10	=10	=10	=10	=10	=10
1G# 1BB_<	1e 1B	.	2BB/	-fi-	.	2B 2G#/	-fi-	.	2e/	-fi-	.	(<4.b/	-fi-	.
.	.	.	.	.	.	.	.	.	.	.	.	8g#/)	.	.
.	.	.	4BB/	-cat	.	4B 4G#/	-cat	.	4e/	-cat	.	4e/	-cat	.
.	.	.	4r	.	.	4r	.	.	4r	.	.	4r	.	.
=11	=11	=11	=11	=11	=11	=11	=11	=11	=11	=11	=11	=11	=11	=11
*	*	*	*	*	*	*^	*	*	*	*	*	*	*	*
1A 1BB_<	1f# 1d# 1B	.	2.BB/	Ma-	.	[<2F#/	2.A\	Ma-	.	2.d#/	Ma-	.	2.f#/	Ma-	.
.	.	.	.	.	.	8F#/L]	.	.	.	.	.	.	.	.	.
.	.	.	.	.	.	8G#/J	.	.	.	.	.	.	.	.	.
.	.	.	4BB/	-gni-	.	8A/L	4F#\	-gni-	.	4f#/	-gni-	.	4f#/	-gni-	.
.	.	.	.	.	.	8A#X/J	.	.	.	.	.	.	.	.	.
=12	=12	=12	=12	=12	=12	=12	=12	=12	=12	=12	=12	=12	=12	=12	=12
1G# 1BB_<	1e 1B	.	2BB/	-fi-	.	4.B/	2G#\	-fi-	.	2e/	-fi-	.	2g#/	-fi-	.
.	.	.	.	.	.	8G#/	.	.	.	.	.	.	.	.	.
.	.	.	4BB/	-cat	.	4E/	4G#\	-cat	.	4e/	-cat	.	4g#/	-cat	.
.	.	.	4r	.	.	4r	4ryy	.	.	4r	.	.	4r	.	.
=13	=13	=13	=13	=13	=13	=13	=13	=13	=13	=13	=13	=13	=13	=13	=13
1A 1BB_<	1f# 1d# 1B	.	2.BB/	Ma-	.	2.B/	2.A\	Ma-	.	2.d#/	Ma-	.	[<2f#/	Ma-	.
.	.	.	.	.	.	.	.	.	.	.	.	.	8f#/L]	.	.
.	.	.	.	.	.	.	.	.	.	.	.	.	8g#/J	.	.
.	.	.	4BB/	-gni-	.	4B/	4A\	-gni-	.	4f#/	-gni-	.	8a/L	-gni-	.
*	*	*	*	*	*	*	*	*	*	*	*Xij	*	*	*	*
.	.	.	.	.	.	.	.	.	.	.	.	.	8a#X/J	.	.
*	*	*	*	*	*	*v	*v	*	*	*	*	*	*	*	*
!!LO:LB:g=original
=14	=14	=14	=14	=14	=14	=14	=14	=14	=14	=14	=14	=14	=14	=14
1G# 1BB_<	1e 1B	.	2BB/	-fi-	.	2B 2G#\	-fi-	.	2e/	-fi-	.	(4.cc#/	-fi-	.
.	.	.	.	.	.	.	.	.	.	.	.	8b/)	.	.
.	.	.	4BB/	-cat	.	4B 4G#\	-cat	.	4e/	-cat	.	4g#/	-cat	.
.	.	.	4r	.	.	4r	.	.	4r	.	.	4r	.	.
=15	=15	=15	=15	=15	=15	=15	=15	=15	=15	=15	=15	=15	=15	=15
*	*	*	*	*	*	*^	*	*	*	*	*	*	*	*
*	*	*	*	*	*	*	*	*	*	*	*ij	*	*	*	*
1A 1BB_<	1f# 1d# 1B	.	2.BB/	Ma-	.	[<2F#/	2.A\	Ma-	.	2.d#/	Ma-	.	2.f#/	Ma-	.
.	.	.	.	.	.	8F#/L]	.	.	.	.	.	.	.	.	.
.	.	.	.	.	.	8G#/J	.	.	.	.	.	.	.	.	.
.	.	.	4BB/	-gni-	.	8A/L	4F#\	-gni-	.	4f#/	-gni-	.	4f#/	-gni-	.
.	.	.	.	.	.	8A#X/J	.	.	.	.	.	.	.	.	.
=16	=16	=16	=16	=16	=16	=16	=16	=16	=16	=16	=16	=16	=16	=16	=16
1G# 1BB]	1e 1B	.	2BB/	-fi-	.	4.c#/	2G#\	-fi-	.	2e/	-fi-	.	2g#/	-fi-	.
.	.	.	.	.	.	8B/	.	.	.	.	.	.	.	.	.
.	.	.	4BB/	-cat	.	4G#/	4E\	-cat	.	4e/	-cat	.	4g#/	-cat	.
.	.	.	4r	.	.	4r	4ryy	.	.	4r	.	.	4r	.	.
*	*	*	*	*	*	*v	*v	*	*	*	*	*	*	*	*
=17	=17	=17	=17	=17	=17	=17	=17	=17	=17	=17	=17	=17	=17	=17
!	!	!LO:DY:rj	!	!	!LO:DY:b:rj	!	!	!LO:DY:b:rj	!	!	!LO:DY:b:rj	!	!	!LO:DY:b:rj
[>1E [<1EE	2ee 2cc#\	f	[>1E	a-	f	2e 2c#\	a-	f	2cc#\	a-	f	2ee\	a-	f
.	4dd# 4b\	.	.	.	.	4d# 4B\	.	.	4b\	.	.	4dd#\	.	.
.	4cc# 4a\	.	.	.	.	4c# 4A\	.	.	4a\	.	.	4cc#\	.	.
=18	=18	=18	=18	=18	=18	=18	=18	=18	=18	=18	=18	=18	=18	=18
1E_> 1EE_<	4b 4g#\	.	1E_>	.	.	4B 4G#\	.	.	4g#\	.	.	4b\	.	.
.	4ee 4cc#\	.	.	.	.	4e 4c#\	.	.	4cc#\	.	.	4ee\	.	.
.	4dd# 4b\	.	.	.	.	4d# 4B\	.	.	4b\	.	.	4dd#\	.	.
.	4cc# 4a\	.	.	.	.	4c# 4A\	.	.	4a\	.	.	4cc#\	.	.
=19	=19	=19	=19	=19	=19	=19	=19	=19	=19	=19	=19	=19	=19	=19
2E] 2EE/]	2b 2g#/	.	2E\]	.	.	2B 2G#\	.	.	2g#\	.	.	2b\	.	.
2AA/	4dd# 4b\	.	2AA/	.	.	4d# 4B\	.	.	4b\	.	.	4dd#\	.	.
.	4cc# 4a\	.	.	.	.	4c# 4A\	.	.	4a\	.	.	4cc#\	.	.
=20	=20	=20	=20	=20	=20	=20	=20	=20	=20	=20	=20	=20	=20	=20
[<1BB	4b 4g#\	.	2BB/	.	.	4B 4G#/	.	.	4g#/	.	.	4b\	.	.
.	4a#X 4f##X\	.	.	.	.	4A#X 4F##X/	.	.	4f##X/	.	.	4a#X\	.	.
!	!LO:TX:a:t=P:problem:w źródle przed f#X\ jest dodatkowo kasownik	!	!	!	!	!LO:TX:a:t=P:problem:w źródle przed 4Fn#X/ jest dodatkowo kasownik	!	!	!	!	!	!	!	!
.	4an 4f#X\	.	4BB/	ni-	.	4An 4Fn#X/	ni-	.	4f#/	ni-	.	4an\	-ni-	.
.	4g# 4e\	.	4BB/	-ma	.	4G# 4E/	-ma	.	4e/	-ma	.	4g#\	-ma	.
=21	=21	=21	=21	=21	=21	=21	=21	=21	=21	=21	=21	=21	=21	=21
1BB_<	2f# 2d#/	.	[<1BB	me-	.	(<2F# 2D#/	me-	.	(<2d#/	me-	.	(<2f#/	me-	.
.	2g# 2e/	.	.	.	.	2G# 2E/	.	.	2e/	.	.	2g#/	.	.
=22	=22	=22	=22	=22	=22	=22	=22	=22	=22	=22	=22	=22	=22	=22
1BB_<	2a 2f#/	.	2BB/]	.	.	2A 2F#/)	.	.	2f#/)	.	.	2a/)	.	.
.	2g# 2e/	.	2BB/	-a	.	2G# 2E/	-a	.	2e/	-a	.	2g#/	-a	.
=23	=23	=23	=23	=23	=23	=23	=23	=23	=23	=23	=23	=23	=23	=23
*	*	*	*	*	*	*^	*	*	*	*	*	*	*	*
1BB]	2.f# 2.d#/	.	2.BB/	Do-	.	2.A 2.F#/	2ryy	Do-	.	2.d#/	Do-	.	2.f#/	Do-	.
.	.	.	.	.	.	.	4ryy	.	.	.	.	.	.	.	.
.	4b\	.	4BB/	-mi-	.	4B/	4B\	-mi-	.	4b\	-mi-	.	4b\	-mi-	.
=24	=24	=24	=24	=24	=24	=24	=24	=24	=24	=24	=24	=24	=24	=24	=24
2BB;>/	2b;>\	.	2BB;>/	-num	.	2B;>/	2B\	-num	.	2b;>\	-num	.	2b;>\	-num	.
2r	2r	.	2r	.	.	2r	2ryy	.	.	2r	.	.	2r	.	.
*	*	*	*	*	*	*v	*v	*	*	*	*	*	*	*	*
=25||	=25||	=25||	=25||	=25||	=25||	=25||	=25||	=25||	=25||	=25||	=25||	=25||	=25||	=25||
!	!	!LO:DY:rj	!	!	!	!	!	!	!	!	!	!LO:TX:a:t=Allo vivace	!	!
1B 1BB	[>1b [<1g#	f	4r	.	.	4r	.	.	4r	.	.	4r	.	.
!	!	!	!	!	!LO:DY:b:rj	!	!	!LO:DY:b:rj	!	!	!LO:DY:b:rj	!	!	!LO:DY:b:rj
.	.	.	4BB/	Et	f	4B 4G#\	Et	f	4g#/	Et	f	4b\	Et	f
.	.	.	4BB/	e-	.	4B 4G#\	e-	.	4g#/	e-	.	4b\	e-	.
.	.	.	4BB/	-xul-	.	4B 4G#\	-xul-	.	4g#/	-xul-	.	4b\	-xul-	.
=26	=26	=26	=26	=26	=26	=26	=26	=26	=26	=26	=26	=26	=26	=26
[>1E [<1EE	2.b] 2.g#/]	.	2.E\	-ta-	.	2.B 2.G#\	-ta-	.	2.g#/	-ta-	.	2.b\	-ta-	.
.	4g# 4e/	.	4E\	-vit	.	4G# 4E\	-vit	.	4e/	-vit	.	4g#\	-vit	.
=27	=27	=27	=27	=27	=27	=27	=27	=27	=27	=27	=27	=27	=27	=27
1E] 1EE]	4ee 4g#\	.	2E\	spi-	.	(>4e 4G#\	spi-	.	(<4g#/	spi-	.	(>4ee\	spi-	.
.	4dd# 4b\	.	.	.	.	4d# 4B\)	.	.	4b/)	.	.	4dd#\)	.	.
.	4cc# 4a\	.	4E\	-ri-	.	4c# 4A\	-ri-	.	4a/	-ri-	.	4cc#\	-ri-	.
.	4b 4g#\	.	4E\	-tus	.	4B 4G#\	-tus	.	4g#/	-tus	.	4b\	-tus	.
=28	=28	=28	=28	=28	=28	=28	=28	=28	=28	=28	=28	=28	=28	=28
1D# 1DD#	2.b 2.g#/	.	1D#	me-	.	(<2.B 2.G#/	me-	.	(<2.g#/	me-	.	(>2.b\	me-	.
.	4a 4f#/	.	.	.	.	4A 4F#/)	.	.	4f#/)	.	.	4a\)	.	.
=29	=29	=29	=29	=29	=29	=29	=29	=29	=29	=29	=29	=29	=29	=29
1E 1EE	1g# 1e	.	2E\	-us	.	2G# 2E/	-us	.	2e/	-us	.	2g#/	-us	.
.	.	.	4r	.	.	4r	.	.	4r	.	.	4r	.	.
.	.	.	4E\	in	.	4G# 4E/	in	.	4e/	in	.	4g#/	in	.
!!LO:PB:g=original
=30	=30	=30	=30	=30	=30	=30	=30	=30	=30	=30	=30	=30	=30	=30
[<1AA	2.cc# 2.a\	.	2AA/	De-	.	2.c# 2.A\	De-	.	2.a/	De-	.	2.cc#\	De-	.
.	.	.	2AA/	-o	.	.	.	.	.	.	.	.	.	.
.	4b#X 4g#\	.	.	.	.	4B#X 4G#\	-o	.	4g#/	-o	.	4b#X\	-o	.
=31	=31	=31	=31	=31	=31	=31	=31	=31	=31	=31	=31	=31	=31	=31
1AA]	4dd# 4bn\	.	4AA/	sa-	.	4d# 4B\	sa-	.	4b/	sa-	.	4dd#\	sa-	.
.	4cc# 4a\	.	4AA/	-lu-	.	4c# 4A\	-lu-	.	4a/	-lu-	.	4cc#\	-lu-	.
.	4b 4g#\	.	4AA/	-ta-	.	4Bn 4G#\	-ta-	.	4g#/	-ta-	.	4bn\	-ta-	.
.	4a 4f#\	.	4AA/	-ri	.	4A 4F#\	-ri	.	4f#/	-ri	.	4a/	-ri	.
=32	=32	=32	=32	=32	=32	=32	=32	=32	=32	=32	=32	=32	=32	=32
[1BB	1g# 1e	.	1BB	me-	.	1G# 1E	me-	.	1e	me-	.	1g#	me-	.
=33	=33	=33	=33	=33	=33	=33	=33	=33	=33	=33	=33	=33	=33	=33
1B 1BB]	2f# 2d#/	.	4BB/	-o	.	4F# 4D#/	-o	.	4d#/	-o	.	4f#\	-o	.
.	.	.	4BB/	Et	.	4F# 4D#/	Et	.	4d#/	Et	.	4f#\	Et	.
.	4g# 4e/	.	4BB/	e-	.	4G# 4E/	e-	.	4e/	e-	.	4g#/	e-	.
.	4a 4f#/	.	4BB/	-xul-	.	4A 4F#/	-xul-	.	4f#/	-xul-	.	4a/	-xul-	.
=34	=34	=34	=34	=34	=34	=34	=34	=34	=34	=34	=34	=34	=34	=34
[>1E [<1EE	2.b 2.g#\	.	2.E\	-ta-	.	2.B 2.G#\	-ta-	.	2.g#/	-ta-	.	2.b\	-ta-	.
.	4g# 4e\	.	4E\	-vit	.	4G# 4E\	-vit	.	4e/	-vit	.	4g#\	-vit	.
=35	=35	=35	=35	=35	=35	=35	=35	=35	=35	=35	=35	=35	=35	=35
1E] 1EE]	4ee 4g#\	.	2E\	spi-	.	(>4e 4G#\	spi-	.	(<4g#/	spi-	.	(>4ee\	spi-	.
.	4dd# 4b\	.	.	.	.	4d# 4B\)	.	.	4b/)	.	.	4dd#\)	.	.
.	4cc# 4a\	.	4E\	-ri-	.	4c# 4A\	-ri-	.	4a/	-ri-	.	4cc#\	-ri-	.
.	4b 4g#\	.	4E\	-tus	.	4B 4G#\	-tus	.	4g#/	-tus	.	4b\	-tus	.
=36	=36	=36	=36	=36	=36	=36	=36	=36	=36	=36	=36	=36	=36	=36
1D# 1DD#	2.b 2.g#/	.	1D#	me-	.	(<2.B 2.G#/	me-	.	(<2.g#/	me-	.	(<2.b/	me-	.
.	4a 4f#/	.	.	.	.	4A 4F#/)	.	.	4f#/)	.	.	4a/)	.	.
=37	=37	=37	=37	=37	=37	=37	=37	=37	=37	=37	=37	=37	=37	=37
1E 1EE	2g# 2e/	.	2E\	-us	.	2G# 2E/	-us	.	2e/	-us	.	2g#/	-us	.
.	4r	.	4r	.	.	4r	.	.	4r	.	.	4r	.	.
.	4ee 4cc#\	.	4E\	in	.	4e 4c#\	in	.	4cc#\	in	.	4ee\	in	.
=38	=38	=38	=38	=38	=38	=38	=38	=38	=38	=38	=38	=38	=38	=38
[>1F# [<1FF#	2.dd# 2.b\	.	2.F#\	De-	.	2.d# 2.B\	De-	.	2.b\	De-	.	2.dd#\	De-	.
.	4dd# 4b\	.	4F#\	-o	.	4d# 4B\	-o	.	4b\	-o	.	4dd#\	-o	.
=39	=39	=39	=39	=39	=39	=39	=39	=39	=39	=39	=39	=39	=39	=39
1F#_> 1FF#_<	4ff# 4dd#\	.	4F#\	sa-	.	4f# 4d#\	sa-	.	4dd#\	sa-	.	4ff#\	sa-	.
.	4ee#X 4cc##X\	.	4F#\	-lu-	.	4e#X 4c##X\	-lu-	.	4cc##X\	-lu-	.	4ee#X\	-lu-	.
!	!LO:TX:a:t=P:problem:w źródle przed 4cc#X\ jest dodatkowo kasownik	!	!	!	!	!LO:TX:a:t=P:problem:w źródle przed 4c#X\ jest dodatkowo kasownik	!	!	!	!	!	!	!	!
.	4een 4cc#X\	.	4F#\	-ta-	.	4en 4c#X\	-ta-	.	4cc#X\	-ta-	.	4een\	-ta-	.
.	4cc# 4a#X\	.	4F#\	-ri	.	4c# 4A#X\	-ri	.	4a#X\	-ri	.	4cc#\	-ri	.
=40	=40	=40	=40	=40	=40	=40	=40	=40	=40	=40	=40	=40	=40	=40
1F#] 1FF#]	1cc# 1a#X	.	1F#	me-	.	1c# 1A#X	me-	.	1a#X	me-	.	1cc#	me-	.
=41	=41	=41	=41	=41	=41	=41	=41	=41	=41	=41	=41	=41	=41	=41
*	*	*	*	*	*	*^	*	*	*	*	*	*	*	*
2BB/	2b 2d#X/	.	2BB/	-o	.	2B/	2B\	-o	.	2b\	-o	.	2b\	-o	.
*	*	*	*	*Xij	*	*	*	*	*	*	*	*	*	*	*
2r	2r	.	2r	.	.	2r	2ryy	.	.	2r	.	.	2r	.	.
*	*	*	*	*	*	*v	*v	*	*	*	*	*	*	*	*
=42	=42	=42	=42	=42	=42	=42	=42	=42	=42	=42	=42	=42	=42	=42
[<1BB	(<4a 4f# 4d#/	.	(>4A\	Qui-	.	1r	.	.	1r	.	.	1r	.	.
.	4B/	.	4F#\)	.	.	.	.	.	.	.	.	.	.	.
.	4a 4f# 4d#/	.	4D#\	-a	.	.	.	.	.	.	.	.	.	.
.	4B/)	.	4BB\	res-	.	.	.	.	.	.	.	.	.	.
=43	=43	=43	=43	=43	=43	=43	=43	=43	=43	=43	=43	=43	=43	=43
*	*rep	*	*	*	*	*	*	*	*	*	*	*	*	*
1BB_<	(<4a 4f# 4d#/	.	(>2c#\	-pe-	.	1r	.	.	1r	.	.	1r	.	.
.	4B/	.	.	.	.	.	.	.	.	.	.	.	.	.
.	4a 4f# 4d#/	.	4B\)	.	.	.	.	.	.	.	.	.	.	.
.	4B/)	.	4A\	-xit	.	.	.	.	.	.	.	.	.	.
*	*Xrep	*	*	*	*	*	*	*	*	*	*	*	*	*
=44	=44	=44	=44	=44	=44	=44	=44	=44	=44	=44	=44	=44	=44	=44
*	*	*	*	*	*	*^	*	*	*	*	*	*	*	*
1BB_<	(<4g# 4e/	.	(>4G#\	hu-	.	(<4e/	2G#\	Qui-	.	2g#/	Qui-	.	(>4ee\	Qui-	.
.	4B/	.	4E\)	.	.	4B/)	.	.	.	.	.	.	4b\)	.	.
.	4g# 4e/	.	4BB/	-mi-	.	4G#/	4E\	-a	.	4e/	-a	.	4g#\	-a	.
.	4B/)	.	4BB/	-li-	.	4B/	4G#\	res-	.	4g#/	res-	.	4b\	res-	.
*	*	*	*	*	*	*v	*v	*	*	*	*	*	*	*	*
=45	=45	=45	=45	=45	=45	=45	=45	=45	=45	=45	=45	=45	=45	=45
*	*rep	*	*	*	*	*	*	*	*	*	*	*	*	*
1BB_<	(<4g# 4e/	.	[<1BB	ta-	.	(>2g# 2B\	-pe-	.	(<2b/	-pe-	.	(>2gg#\	-pe-	.
.	4B/	.	.	.	.	.	.	.	.	.	.	.	.	.
.	4g# 4e/	.	.	.	.	4f# 4A\)	.	.	4a/)	.	.	4ff#\)	.	.
.	4B/)	.	.	.	.	4e 4G#\	-xit	.	4g#/	-xit	.	4ee\	-xit	.
*	*Xrep	*	*	*	*	*	*	*	*	*	*	*	*	*
=46	=46	=46	=46	=46	=46	=46	=46	=46	=46	=46	=46	=46	=46	=46
1BB_<	(<4a 4f# 4d#/	.	1BB_<	.	.	(>4e 4G#\	hu-	.	(<4g#/	hu-	.	(>4ee\	hu-	.
.	4B/	.	.	.	.	4d# 4F#\)	.	.	4f#/)	.	.	4dd#\)	.	.
.	4a 4f# 4d#/	.	.	.	.	4d# 4F#\	-mi-	.	4f#/	-mi-	.	4dd#\	-mi-	.
.	4B/)	.	.	.	.	4c# 4E\	-li-	.	4e/	-li-	.	4cc#\	-li-	.
!!LO:LB:g=original
=47	=47	=47	=47	=47	=47	=47	=47	=47	=47	=47	=47	=47	=47	=47
*	*rep	*	*	*	*	*	*	*	*	*	*	*	*	*
1BB]	(<4a 4f# 4d#/	.	2BB/]	.	.	(>4c# 4E\	-ta-	.	(<4e/	-ta-	.	(>4cc#\	-ta-	.
.	4B/	.	.	.	.	4B 4D#\)	.	.	4d#/)	.	.	4b\)	.	.
.	4a 4f# 4d#/	.	4BB/	-tem	.	4B 4D#\	-tem	.	4d#/	-tem	.	4b\	-tem	.
.	4B/)	.	4BB/	an-	.	4A 4F#\	an-	.	4f#/	an-	.	4a\	an-	.
*	*Xrep	*	*	*	*	*	*	*	*	*	*	*	*	*
=48	=48	=48	=48	=48	=48	=48	=48	=48	=48	=48	=48	=48	=48	=48
[>1E [<1EE	(<4g# 4e/	.	2E\	-cil-	.	(>4G# 4E\	-cil-	.	(<4e/	-cil-	.	(>4g#\	-cil-	.
.	4B/	.	.	.	.	4A 4F#\)	.	.	4f#/)	.	.	4a\)	.	.
.	4g# 4e/	.	2E\	-lae	.	(>4c# 4A\	-lae	.	(<4a/	-lae	.	(>4cc#\	-lae	.
.	4B/)	.	.	.	.	4B 4G#\)	.	.	4g#/)	.	.	4b\)	.	.
=49	=49	=49	=49	=49	=49	=49	=49	=49	=49	=49	=49	=49	=49	=49
*	*rep	*	*	*	*	*	*	*	*	*	*	*	*	*
1E] 1EE]	(<4g# 4e/	.	2E\	su-	.	2B 2G#/	su-	.	2g#/	su-	.	2b\	su-	.
.	4B/	.	.	.	.	.	.	.	.	.	.	.	.	.
.	4g# 4e/	.	4E\	-ae	.	4G# 4E/	-ae	.	4e/	-ae	.	4g#/	-ae	.
.	4B/)	.	4r	.	.	4r	.	.	4r	.	.	4r	.	.
*	*Xrep	*	*	*	*	*	*	*	*	*	*	*	*	*
=50	=50	=50	=50	=50	=50	=50	=50	=50	=50	=50	=50	=50	=50	=50
[<1BB	(<4a 4f# 4d#/	.	(>4A\	Qui-	.	1r	.	.	1r	.	.	1r	.	.
.	4B/	.	4F#\)	.	.	.	.	.	.	.	.	.	.	.
.	4a 4f# 4d#/	.	4D#\	-a	.	.	.	.	.	.	.	.	.	.
.	4B/)	.	4BB\	res-	.	.	.	.	.	.	.	.	.	.
=51	=51	=51	=51	=51	=51	=51	=51	=51	=51	=51	=51	=51	=51	=51
*	*rep	*	*	*	*	*	*	*	*	*	*	*	*	*
1BB_<	(<4a 4f# 4d#/	.	(>2c#\	-pe-	.	1r	.	.	1r	.	.	1r	.	.
.	4B/	.	.	.	.	.	.	.	.	.	.	.	.	.
.	4a 4f# 4d#/	.	4B\)	.	.	.	.	.	.	.	.	.	.	.
.	4B/)	.	4A\	-xit	.	.	.	.	.	.	.	.	.	.
*	*Xrep	*	*	*	*	*	*	*	*	*	*	*	*	*
=52	=52	=52	=52	=52	=52	=52	=52	=52	=52	=52	=52	=52	=52	=52
*	*	*	*	*	*	*^	*	*	*	*	*	*	*	*
1BB_<	(<4g# 4e/	.	(>4G#\	hu-	.	(<4e/	2G#\	Qui-	.	2g#/	Qui-	.	(>4ee\	Qui-	.
.	4B/	.	4E\)	.	.	4B/)	.	.	.	.	.	.	4b\)	.	.
.	4g# 4e/	.	4BB/	-mi-	.	4G#/	4E\	-a	.	4e/	-a	.	4g#/	-a	.
.	4B/)	.	4BB/	-li-	.	4B/	4G#\	res-	.	4g#/	res-	.	4b/	res-	.
*	*	*	*	*	*	*v	*v	*	*	*	*	*	*	*	*
=53	=53	=53	=53	=53	=53	=53	=53	=53	=53	=53	=53	=53	=53	=53
*	*rep	*	*	*	*	*	*	*	*	*	*	*	*	*
1BB_<	(<4g# 4e/	.	[<1BB	-ta-	.	(>2g# 2B\	-pe-	.	(<2b/	-pe-	.	(>2gg#\	-pe-	.
.	4B/	.	.	.	.	.	.	.	.	.	.	.	.	.
.	4g# 4e/	.	.	.	.	4f# 4A\)	.	.	4a/)	.	.	4ff#\)	.	.
.	4B/)	.	.	.	.	4e 4G#\	-xit	.	4g#/	-xit	.	4ee\	-xit	.
*	*Xrep	*	*	*	*	*	*	*	*	*	*	*	*	*
=54	=54	=54	=54	=54	=54	=54	=54	=54	=54	=54	=54	=54	=54	=54
1BB_<	(<4a 4f# 4d#/	.	1BB_<	.	.	(>4e 4G#\	hu-	.	(<4g#/	hu-	.	(>4ee\	hu-	.
.	4B/	.	.	.	.	4d# 4F#\)	.	.	4f#/)	.	.	4dd#\)	.	.
.	4a 4f# 4d#/	.	.	.	.	4d# 4F#\	-mi-	.	4f#/	-mi-	.	4dd#\	-mi-	.
.	4B/)	.	.	.	.	4c# 4E\	-li-	.	4e/	-li-	.	4cc#\	-li-	.
=55	=55	=55	=55	=55	=55	=55	=55	=55	=55	=55	=55	=55	=55	=55
*	*rep	*	*	*	*	*	*	*	*	*	*	*	*	*
1BB]	(<4a 4f# 4d#/	.	2BB/]	.	.	(>4c# 4E\	-ta-	.	(<4e/	-ta-	.	(>4cc#\	-ta-	.
.	4B/	.	.	.	.	4B 4D#\)	.	.	4d#/)	.	.	4b\)	.	.
.	4a 4f# 4d#/	.	4BB/	-tem	.	4B 4D#/	-tem	.	4d#/	-tem	.	4b\	-tem	.
.	4B/)	.	4BB/	an-	.	4A 4F#/	an-	.	4f#/	an-	.	4a/	an-	.
*	*Xrep	*	*	*	*	*	*	*	*	*	*	*	*	*
=56	=56	=56	=56	=56	=56	=56	=56	=56	=56	=56	=56	=56	=56	=56
[>1E [<1EE	(<4g# 4e/	.	2E\	-cil-	.	(<4G# 4E/	-cil-	.	(<4e/	-cil-	.	(<4g#/	-cil-	.
.	4B/	.	.	.	.	4A 4F#/)	.	.	4f#/)	.	.	4a/)	.	.
.	4g# 4e/	.	2E\	-lae	.	(>4c# 4A\	-lae	.	(<4a/	-lae	.	(>4cc#\	-lae	.
.	4B/)	.	.	.	.	4B 4G#\)	.	.	4g#/)	.	.	4b\)	.	.
=57	=57	=57	=57	=57	=57	=57	=57	=57	=57	=57	=57	=57	=57	=57
*	*rep	*	*	*	*	*	*	*	*	*	*	*	*	*
1E] 1EE]	(<4g# 4e/	.	2E\	su-	.	2B 2G#\	su-	.	2g#/	su-	.	2b\	su-	.
.	4B/	.	.	.	.	.	.	.	.	.	.	.	.	.
.	4g# 4e/	.	4E\	-ae	.	4G# 4E/	-ae	.	4e/	-ae	.	4g#/	-ae	.
.	4B/)	.	4r	.	.	4r	.	.	4r	.	.	4r	.	.
*	*Xrep	*	*	*	*	*	*	*	*	*	*	*	*	*
=58	=58	=58	=58	=58	=58	=58	=58	=58	=58	=58	=58	=58	=58	=58
*	*	*	*	*ij	*	*	*	*	*	*	*	*	*	*
1E	[>1g# [<1e [1B	.	2.E\	ec-	.	2.G# 2.E/	ec-	.	2.e/	ec-	.	2.g#/	ec-	.
.	.	.	4E\	-ce	.	4G# 4E/	-ce	.	4e/	-ce	.	4g#/	-ce	.
=59	=59	=59	=59	=59	=59	=59	=59	=59	=59	=59	=59	=59	=59	=59
1Dn	1g#] 1e] 1B]	.	2Dn\	e-	.	2G# 2E/	e-	.	2e/	e-	.	2g#/	e-	.
.	.	.	2D\	-nim	.	2G# 2E/	-nim	.	2e/	-nim	.	2g#/	-nim	.
=60	=60	=60	=60	=60	=60	=60	=60	=60	=60	=60	=60	=60	=60	=60
2C#/	2a 2e/	.	2C#/	ex	.	2A 2E/	ex	.	2e/	ex	.	2a/	ex	.
2BB/	2b 2e/	.	4BB/	hoc	.	4B 4E/	hoc	.	4e/	hoc	.	4b/	hoc	.
.	.	.	4BB/	be-	.	4B 4E/	be-	.	4e/	be-	.	4b/	be-	.
=61	=61	=61	=61	=61	=61	=61	=61	=61	=61	=61	=61	=61	=61	=61
1AA	(>4cc# 4e\	.	2AA/	-a-	.	(<4c# 4E/	-a-	.	(<4e/	-a-	.	(>4cc#\	-a-	.
.	4g# 4e#X\	.	.	.	.	4G# 4E#X/)	.	.	4e#X/)	.	.	4g#\)	.	.
.	4b 4g#\	.	4AA/	-tam	.	4B 4G#\	-tam	.	4g#/	-tam	.	4b\	-tam	.
.	4a 4f#\)	.	4AA/	me	.	4A 4F#\	me	.	4f#/	me	.	4a\	me	.
!LO:TX:b:t=VS.	!	!	!	!	!	!	!	!	!	!	!	!	!	!
!!LO:PB:g=original
=62	=62	=62	=62	=62	=62	=62	=62	=62	=62	=62	=62	=62	=62	=62
[<1BB	1g# 1e	.	2.BB/	di-	.	2.G# 2.E/	di-	.	2.e/	di-	.	2.g#/	di-	.
.	.	.	4BB/	-cent	.	4G# 4E/	-cent	.	4e/	-cent	.	4g#/	-cent	.
=63	=63	=63	=63	=63	=63	=63	=63	=63	=63	=63	=63	=63	=63	=63
1BB_<	1gn 1e	.	2.BB/	o-	.	2.Gn 2.E/	o-	.	2.e/	o-	.	2.gn/	o-	.
.	.	.	4BB/	-mnes	.	4G 4E/	-mnes	.	4e/	-mnes	.	4g/	-mnes	.
=64	=64	=64	=64	=64	=64	=64	=64	=64	=64	=64	=64	=64	=64	=64
1BB_<	2f# 2d#/	.	4BB/	ge-	.	4F# 4D#/	ge-	.	4d#/	ge-	.	4f#/	ge-	.
.	.	.	4BB/	-ne-	.	4F# 4D#/	-ne-	.	4d#/	-ne-	.	4f#/	-ne-	.
.	4a 4f#/	.	4BB/	-ra-	.	4A 4F#/	-ra-	.	4f#/	-ra-	.	4a/	-ra-	.
.	4g# 4e/	.	4BB/	-ti-	.	4G#X 4E/	-ti-	.	4e/	-ti-	.	4g#X/	-ti-	.
=65	=65	=65	=65	=65	=65	=65	=65	=65	=65	=65	=65	=65	=65	=65
2BB;>/]	2f# 2d#;>/	.	2BB;>/	-o-	.	2F# 2D#;>/	-o-	.	2d#;>/	-o-	.	2f#;>/	-o-	.
4BB/	4f# 4d#/	.	4BB/	-nes	.	4F# 4D#/	-nes	.	4d#/	-nes	.	4f#/	-nes	.
4r	4r	.	4r	.	.	4r	.	.	4r	.	.	4r	.	.
=66	=66	=66	=66	=66	=66	=66	=66	=66	=66	=66	=66	=66	=66	=66
[>1E [<1EE	2.b 2.g#/	.	[>1E	Ma-	.	(>2.B 2.G#\	Ma-	.	(<2.g#/	Ma-	.	(>2.b\	Ma-	.
.	4g# 4e/	.	.	.	.	4G# 4E\	.	.	4e/	.	.	4g#\	.	.
=67	=67	=67	=67	=67	=67	=67	=67	=67	=67	=67	=67	=67	=67	=67
1E] 1EE]	4ee 4g#\	.	2E\]	.	.	4e 4G#\	.	.	4g#/	.	.	4ee\	.	.
.	4dd# 4b\	.	.	.	.	4d# 4B\	.	.	4b/	.	.	4dd#\	.	.
.	4cc# 4a\	.	2E\	-gni-	.	4c# 4A\)	.	.	4a/)	.	.	4cc#\)	.	.
.	4b 4g#\	.	.	.	.	4B 4G#\	-gni-	.	4g#/	-gni-	.	4b\	-gni-	.
=68	=68	=68	=68	=68	=68	=68	=68	=68	=68	=68	=68	=68	=68	=68
1D# 1DD#	2.b 2.g#/	.	1D#	-fi-	.	(<2.B 2.G#/	-fi-	.	(<2.g#/	-fi-	.	(>2.b\	-fi-	.
.	4a 4f#/	.	.	.	.	4A 4F#/)	.	.	4f#/)	.	.	4a\)	.	.
=69	=69	=69	=69	=69	=69	=69	=69	=69	=69	=69	=69	=69	=69	=69
2E 2EE/	2g# 2e/	.	2E\	-cat	.	2G# 2E/	-cat	.	2e/	-cat	.	2g#/	-cat	.
2r	2r	.	2r	.	.	2r	.	.	2r	.	.	2r	.	.
=70	=70	=70	=70	=70	=70	=70	=70	=70	=70	=70	=70	=70	=70	=70
1AA	2.cc# 2.a\	.	2AA/	a-	.	2c# 2A\	a-	.	2a/	a-	.	2cc#\	a-	.
.	.	.	4AA/	-ni-	.	4c# 4A\	-ni-	.	4a/	-ni-	.	4cc#\	-ni-	.
.	4b#X 4g#\	.	4AA/	-ma	.	4B#X 4G#\	-ma	.	4g#/	-ma	.	4b#X\	-ma	.
=71	=71	=71	=71	=71	=71	=71	=71	=71	=71	=71	=71	=71	=71	=71
1AA	4dd# 4bn\	.	2.AA/	me-	.	(>4d# 4B\	me-	.	(<4b/	me-	.	(>4dd#\	me-	.
.	4cc# 4a\	.	.	.	.	4c# 4A\	.	.	4a/	.	.	4cc#\	.	.
.	4b 4g#\	.	.	.	.	4Bn 4G#\)	.	.	4g#/)	.	.	4bn\)	.	.
.	4a 4f#\	.	4AA/	-a	.	4A 4F#\	-a	.	4f#/	-a	.	4a/	-a	.
=72	=72	=72	=72	=72	=72	=72	=72	=72	=72	=72	=72	=72	=72	=72
1BB	1g# 1e	.	1BB	Domi-	.	2.G# 2.E/	Do-	.	2.e/	Do-	.	2.g#/	Do-	.
.	.	.	.	.	.	4G# 4E/	-mi-	.	4e/	-mi-	.	4g#/	-mi-	.
=73	=73	=73	=73	=73	=73	=73	=73	=73	=73	=73	=73	=73	=73	=73
2BB/	2f# 2d#/	.	2BB/	-num	.	2F# 2D#/	-num	.	2d#/	-num	.	2f#/	-num	.
2r	2r	.	2r	.	.	2r	.	.	2r	.	.	2r	.	.
=74	=74	=74	=74	=74	=74	=74	=74	=74	=74	=74	=74	=74	=74	=74
[>1E [<1EE	2.b 2.g#\	.	[>1E	Ma-	.	(>2.B 2.G#\	Ma-	.	(<2.g#/	Ma-	.	(>2.b\	Ma-	.
.	4g# 4e\	.	.	.	.	4G# 4E\	.	.	4e/	.	.	4g#\	.	.
=75	=75	=75	=75	=75	=75	=75	=75	=75	=75	=75	=75	=75	=75	=75
1E] 1EE]	4gg# 4ee\	.	2E\]	.	.	4g# 4e\	.	.	4ee\)	.	.	4gg#\	.	.
.	4ff# 4dd#\	.	.	.	.	4f# 4d#\	.	.	4dd#\	.	.	4ff#\	.	.
.	4ee 4cc#\	.	2E\	gni-	.	4e 4c#\)	.	.	4cc#\	.	.	4ee\)	.	.
.	4dd# 4b\	.	.	.	.	4d# 4B\	gni-	.	4b\	gni-	.	4dd#\	-gni-	.
=76	=76	=76	=76	=76	=76	=76	=76	=76	=76	=76	=76	=76	=76	=76
[<1AA	1dd# 1b	.	1AA	-fi-	.	1d# 1B	-fi-	.	1b	-fi-	.	1dd#	-fi-	.
=77	=77	=77	=77	=77	=77	=77	=77	=77	=77	=77	=77	=77	=77	=77
1AA]	2cc# 2a\	.	2AA/	-cat	.	2c# 2A\	-cat	.	2a/	-cat	.	2cc#\	-cat	.
.	[>2cc# 2a\	.	2AA/	a-	.	[>2c# [<2A\	a-	.	[<2a/	a-	.	[>2cc#\	a-	.
!!LO:LB:g=original
=78	=78	=78	=78	=78	=78	=78	=78	=78	=78	=78	=78	=78	=78	=78
!	!LO:TX:t=P:problem:w źródle brak  zakończenia ligatury	!	!	!	!	!	!	!	!	!	!	!	!	!
[<1BB	2cc#] 2a\	.	2BB/	.	.	2c#] 2A\]	.	.	2a/]	.	.	2cc#\]	.	.
.	4b 4g#\	.	4BB/	-ni-	.	4B 4G#\	-ni-	.	4g#/	-ni-	.	4b\	-ni-	.
.	4g# 4e\	.	4BB/	-ma	.	4G# 4E\	-ma	.	4e/	-ma	.	4g#\	-ma	.
=79	=79	=79	=79	=79	=79	=79	=79	=79	=79	=79	=79	=79	=79	=79
1BB_<	2b 2g#/	.	2BB/	me-	.	(<2B 2G#/	me-	.	(<2g#/	me-	.	(>2b\	me-	.
.	4a 4f#/	.	2BB/	-a	.	4A 4F#/)	.	.	4f#/)	.	.	4a\)	.	.
.	4f# 4d#/	.	.	.	.	4F# 4D#/	-a	.	4d#/	-a	.	4f#/	-a	.
=80	=80	=80	=80	=80	=80	=80	=80	=80	=80	=80	=80	=80	=80	=80
1BB]	1a 1f# 1d#	.	2.BB/	Do-	.	2.A 2.F#/	Do-	.	2.f#/	Do-	.	2.a/	Do-	.
.	.	.	4BB/	-mi-	.	4A 4F#/	-mi-	.	4f#/	-mi-	.	4a/	-mi-	.
=81	=81	=81	=81	=81	=81	=81	=81	=81	=81	=81	=81	=81	=81	=81
2E\	2g# 2e/	.	2E\	-num	.	2G# 2E/	-num	.	2e/	-num	.	2g#/	-num	.
2r	2r	.	2r	.	.	2r	.	.	2r	.	.	2r	.	.
=82	=82	=82	=82	=82	=82	=82	=82	=82	=82	=82	=82	=82	=82	=82
1A 1BB	1b 1f# 1d#	.	2.BB/	Ma-	.	2.A 2.F#/	Ma-	.	2.d#/	Ma-	.	2.b\	Ma-	.
.	.	.	4BB/	-gni-	.	4A 4F#/	-gni-	.	4d#/	-gni-	.	4b\	-gni-	.
=83	=83	=83	=83	=83	=83	=83	=83	=83	=83	=83	=83	=83	=83	=83
1G# 1E	1b 1g# 1e	.	2E\	-fi-	.	2G# 2E/	-fi-	.	2e/	-fi-	.	2b\	-fi-	.
.	.	.	2E\	-cat	.	2G# 2E/	-cat	.	2e/	-cat	.	2b\	-cat	.
=84	=84	=84	=84	=84	=84	=84	=84	=84	=84	=84	=84	=84	=84	=84
1A 1BB	1b 1f# 1d#	.	2.BB/	Ma-	.	2.A 2.F#/	Ma-	.	2.d#/	Ma-	.	2.b\	Ma-	.
.	.	.	4BB/	-gni-	.	4A 4F#/	-gni-	.	4d#/	-gni-	.	4b\	-gni-	.
=85	=85	=85	=85	=85	=85	=85	=85	=85	=85	=85	=85	=85	=85	=85
1G# 1E	1b 1g# 1e	.	2E\	-fi-	.	2G# 2E/	-fi-	.	2e/	-fi-	.	2b\	-fi-	.
.	.	.	2E\	-cat	.	2G# 2E/	-cat	.	2e/	-cat	.	2b\	-cat	.
=86	=86	=86	=86	=86	=86	=86	=86	=86	=86	=86	=86	=86	=86	=86
[>1A [<1BB	[>1b [>1f# [<1d#	.	2BB/	a-	.	2A 2F#/	a-	.	2d#/	a-	.	2b\	a-	.
.	.	.	4BB/	-ni-	.	4A 4F#/	-ni-	.	4d#/	-ni-	.	4b\	-ni-	.
.	.	.	4BB/	-ma	.	4A 4F#/	-ma	.	4d#/	-ma	.	4b\	-ma	.
=87	=87	=87	=87	=87	=87	=87	=87	=87	=87	=87	=87	=87	=87	=87
1A_> 1BB_<	1b_> 1f#_> 1d#_<	.	2BB/	me-	.	2A 2F#/	me-	.	2d#/	me-	.	2b\	me-	.
.	.	.	2BB/	-a	.	2A 2F#/	-a	.	2d#/	-a	.	2b\	-a	.
=88	=88	=88	=88	=88	=88	=88	=88	=88	=88	=88	=88	=88	=88	=88
1A_> 1BB_<	1b_> 1f#_> 1d#_<	.	[<1BB	Do-	.	[>1A [<1F#	Do-	.	[<1d#	Do-	.	[>1b	Do-	.
=89	=89	=89	=89	=89	=89	=89	=89	=89	=89	=89	=89	=89	=89	=89
1A] 1BB]	1b] 1f#] 1d#]	.	2BB/]	.	.	2A] 2F#/]	.	.	2d#/]	.	.	2b\]	.	.
.	.	.	2BB/	-mi-	.	2A 2F#/	-mi-	.	2d#/	-mi-	.	2b\	-mi-	.
=90	=90	=90	=90	=90	=90	=90	=90	=90	=90	=90	=90	=90	=90	=90
2G# 2E;>\	2e;>/	.	2E;>\	-num	.	2G# 2E;>/	-num	.	2e;>/	-num	.	2e;>/	-num	.
*	*	*	*	*Xij	*	*	*	*	*	*Xij	*	*	*	*
2r	2r	.	2r	.	.	2r	.	.	2r	.	.	2r	.	.
==	==	==	==	==	==	==	==	==	==	==	==	==	==	==
*-	*-	*-	*-	*-	*-	*-	*-	*-	*-	*-	*-	*-	*-	*-
!!!system-decoration: ((g1)(s5,s6))
!!!RDF**kern: > = above
!!!RDF**kern: < = below
!!!EED: Antoni Szymański
!!!EST: 2021-06-06
!!!ENC: Katarzyna Serwa
!!!END: 2021-05-24
